_site/images/security/mitigation.svg

<svg height="345" viewBox="0 0 427 345" width="427" xmlns="http://www.w3.org/2000/svg" xmlns:xlink="http://www.w3.org/1999/xlink"><defs><rect id="a" height="219" rx="12" width="339"/><filter id="b" height="193.6%" width="149.3%" x="-24.6%" y="-39.5%"><feOffset dx="0" dy="36" in="SourceAlpha" result="shadowOffsetOuter1"/><feGaussianBlur in="shadowOffsetOuter1" result="shadowBlurOuter1" stdDeviation="21.5"/><feColorMatrix in="shadowBlurOuter1" result="shadowMatrixOuter1" type="matrix" values="0 0 0 0 0   0 0 0 0 0   0 0 0 0 0  0 0 0 0.201115263 0"/><feOffset dx="0" dy="-3" in="SourceAlpha" result="shadowOffsetOuter2"/><feGaussianBlur in="shadowOffsetOuter2" result="shadowBlurOuter2" stdDeviation="22"/><feColorMatrix in="shadowBlurOuter2" result="shadowMatrixOuter2" type="matrix" values="0 0 0 0 0   0 0 0 0 0   0 0 0 0 0  0 0 0 0.0313632246 0"/><feMerge><feMergeNode in="shadowMatrixOuter1"/><feMergeNode in="shadowMatrixOuter2"/></feMerge></filter><rect id="c" height="173" rx="12" width="339"/><mask id="d" fill="#fff"><use fill="#fff" fill-rule="evenodd" xlink:href="#c"/></mask></defs><g fill="none" fill-rule="evenodd" transform="translate(44 47)"><use fill="#000" filter="url(#b)" xlink:href="#a"/><use fill="#fff" fill-rule="evenodd" xlink:href="#a"/><g transform="translate(0 47)"><use fill="#fff" xlink:href="#c"/><g fill="#3377c6" fill-opacity=".27" fill-rule="nonzero" mask="url(#d)"><path d="m127.97058 13.3558592c-1.926575-1.5423003-4.455319-2.1381348-6.877495-1.6205074-17.682977 3.6674433-36.1113939-.0562281-50.9262134-10.2902214-2.8066287-1.92684054-6.5271145-1.92684054-9.3337432 0-14.8148195 10.2339933-33.243236 13.9576647-50.92621314 10.2902214-2.422176-.5176274-4.95092059.0782071-6.87749501 1.6205074-1.92399123 1.5445869-3.0377966 3.8682448-3.02937281 6.3199785v60.3638974c-.01476878 23.5704859 11.48348156 45.6945239 30.86685266 59.3915929l29.8843533 21.066595c2.8424058 2.002769 6.6550874 2.002769 9.4974932 0l29.8843534-21.066595c19.383371-13.697069 30.881621-35.821107 30.866853-59.3915929v-60.3638974c.008423-2.4517337-1.105382-4.7753916-3.029373-6.3199785zm-13.970594 66.8354117c.01271 18.2916715-8.900202 35.4622621-23.9283263 46.0975611l-25.0716597 17.711168-25.0716597-17.711168c-15.0281246-10.635299-23.9410366-27.8058896-23.9283267-46.0975611v-50.9499359c17.120827 1.4511273 34.2676551-2.4826134 48.9999864-11.241335 14.7323313 8.7587216 31.8791594 12.6924623 48.999986 11.241335zm-36.1856589-19.6664737-21.7545423 22.4174294-7.1975995-7.4724765c-3.1711667-3.2556929-8.3126436-3.2556929-11.4838103.0000001-3.1711666 3.2556929-3.1711667 8.5342142-.0000001 11.7899072l12.9395047 13.2844026c1.5185043 1.571816 3.5855567 2.45594 5.7419052 2.45594s4.223401-.884124 5.7419052-2.45594l27.8199351-28.312383c3.1711666-3.2556931 3.1711665-8.5342143-.0000001-11.7899072-3.1711667-3.255693-8.3126436-3.2556931-11.4838103-.0000001z" transform="translate(248 57)"/></g></g><g fill="#e1e8ee"><path d="m96 78h134.5c2.209139 0 4 1.790861 4 4 0 2.209139-1.790861 4-4 4h-134.5c-2.209139 0-4-1.790861-4-4 0-2.209139 1.790861-4 4-4z"/><path d="m124.5 96h77.089928c2.209139 0 4 1.790861 4 4 0 2.209139-1.790861 4-4 4h-77.089928c-2.209139 0-4-1.790861-4-4 0-2.209139 1.790861-4 4-4z"/><path d="m84 125h147c2.209139 0 4 1.790861 4 4 0 2.209139-1.790861 4-4 4h-147c-2.209139 0-4-1.790861-4-4 0-2.209139 1.790861-4 4-4z"/><rect height="8" rx="4" width="155" x="80" y="143"/><path d="m84 161h128c2.209139 0 4 1.790861 4 4 0 2.209139-1.790861 4-4 4h-128c-2.209139 0-4-1.790861-4-4 0-2.209139 1.790861-4 4-4z"/></g><rect fill="#3377c6" height="41" rx="6" width="41" x="143" y="16"/><path d="m15.63 1.65c-.235307-.19034783-.5441615-.26388462-.84-.2-2.1597545.45262903-4.4105551-.00693958-6.22-1.27-.3427946-.23780708-.7972054-.23780708-1.14 0-1.80944491 1.26306042-4.06024551 1.72262903-6.22 1.27-.2958385-.06388462-.60469303.00965217-.84.2-.23499146.19063005-.37102886.47741159-.37.78v7.45c-.00180382 2.9090256 1.40256364 5.6395331 3.77 7.33l3.65 2.6c.34716431.247178.81283569.247178 1.16 0l3.65-2.6c2.3674364-1.6904669 3.7718038-4.4209744 3.77-7.33v-7.45c.0010289-.30258841-.1350085-.58936995-.37-.78zm-1.63 8.23c.0015563 2.2617797-1.089821 4.3849369-2.93 5.7l-3.07 2.19-3.07-2.19c-1.84017903-1.3150631-2.93155631-3.4382203-2.93-5.7v-6.3c2.09642839.17943304 4.19604057-.30697712 6-1.39 1.80395943 1.08302288 3.9035716 1.56943304 6 1.39zm-4.46-2.29-2.69 2.7-.89-.9c-.39212217-.39212216-1.02787782-.39212216-1.41999999.00000001s-.39212217 1.02787779-.00000001 1.41999999l1.6 1.6c.1877666.1893127.44336246.2957983.71.2957983s.5222334-.1064856.71-.2957983l3.44-3.41c.3921222-.39212217.3921222-1.02787782 0-1.41999999s-1.02787783-.39212217-1.42-.00000001z" fill="#fff" fill-rule="nonzero" transform="translate(156 26)"/></g></svg>

<?xml version="1.0" encoding="UTF-8"?>
<svg width="427px" height="345px" viewBox="0 0 427 345" version="1.1" xmlns="http://www.w3.org/2000/svg" xmlns:xlink="http://www.w3.org/1999/xlink">
    <!-- Generator: Sketch 52.6 (67491) - http://www.bohemiancoding.com/sketch -->
    <title>Group 31</title>
    <desc>Created with Sketch.</desc>
    <defs>
        <rect id="path-1" x="0" y="0" width="339" height="219" rx="12"></rect>
        <filter x="-24.6%" y="-39.5%" width="149.3%" height="193.6%" filterUnits="objectBoundingBox" id="filter-2">
            <feOffset dx="0" dy="36" in="SourceAlpha" result="shadowOffsetOuter1"></feOffset>
            <feGaussianBlur stdDeviation="21.5" in="shadowOffsetOuter1" result="shadowBlurOuter1"></feGaussianBlur>
            <feColorMatrix values="0 0 0 0 0   0 0 0 0 0   0 0 0 0 0  0 0 0 0.201115263 0" type="matrix" in="shadowBlurOuter1" result="shadowMatrixOuter1"></feColorMatrix>
            <feOffset dx="0" dy="-3" in="SourceAlpha" result="shadowOffsetOuter2"></feOffset>
            <feGaussianBlur stdDeviation="22" in="shadowOffsetOuter2" result="shadowBlurOuter2"></feGaussianBlur>
            <feColorMatrix values="0 0 0 0 0   0 0 0 0 0   0 0 0 0 0  0 0 0 0.0313632246 0" type="matrix" in="shadowBlurOuter2" result="shadowMatrixOuter2"></feColorMatrix>
            <feMerge>
                <feMergeNode in="shadowMatrixOuter1"></feMergeNode>
                <feMergeNode in="shadowMatrixOuter2"></feMergeNode>
            </feMerge>
        </filter>
        <rect id="path-3" x="0" y="0" width="339" height="173" rx="12"></rect>
    </defs>
    <g id="Landing-page" stroke="none" stroke-width="1" fill="none" fill-rule="evenodd">
        <g id="1.9--Security" transform="translate(-95.000000, -1541.000000)">
            <g id="Group-9" transform="translate(139.000000, 1554.000000)">
                <g id="Group-31" transform="translate(0.000000, 34.000000)">
                    <g id="mcokup-2">
                        <g id="Group-4">
                            <g id="Rectangle-5">
                                <use fill="black" fill-opacity="1" filter="url(#filter-2)" xlink:href="#path-1"></use>
                                <use fill="#FFFFFF" fill-rule="evenodd" xlink:href="#path-1"></use>
                            </g>
                            <g id="shield-check" transform="translate(0.000000, 47.000000)">
                                <mask id="mask-4" fill="white">
                                    <use xlink:href="#path-3"></use>
                                </mask>
                                <use id="Mask" fill="#FFFFFF" xlink:href="#path-3"></use>
                                <g mask="url(#mask-4)" fill="#3377C6" fill-opacity="0.27" fill-rule="nonzero" id="Shape">
                                    <g transform="translate(248.000000, 57.000000)">
                                        <path d="M127.97058,13.3558592 C126.044005,11.8135589 123.515261,11.2177244 121.093085,11.7353518 C103.410108,15.4027951 84.9816911,11.6791237 70.1668716,1.4451304 C67.3602429,-0.481710135 63.6397571,-0.481710135 60.8331284,1.4451304 C46.0183089,11.6791237 27.5898924,15.4027951 9.90691526,11.7353518 C7.48473926,11.2177244 4.95599467,11.8135589 3.02942025,13.3558592 C1.10542902,14.9004461 -0.00837634834,17.224104 4.74401212e-05,19.6758377 L4.74401212e-05,80.0397351 C-0.0147213427,103.610221 11.483529,125.734259 30.8669001,139.431328 L60.7512534,160.497923 C63.5936592,162.500692 67.4063408,162.500692 70.2487466,160.497923 L100.1331,139.431328 C119.516471,125.734259 131.014721,103.610221 130.999953,80.0397351 L130.999953,19.6758377 C131.008376,17.224104 129.894571,14.9004461 127.97058,13.3558592 Z M113.999986,80.1912709 C114.012696,98.4829424 105.099784,115.653533 90.0716597,126.288832 L65,144 L39.9283403,126.288832 C24.9002157,115.653533 15.9873037,98.4829424 16.0000136,80.1912709 L16.0000136,29.241335 C33.1208406,30.6924623 50.2676687,26.7587216 65,18 C79.7323313,26.7587216 96.8791594,30.6924623 113.999986,29.241335 L113.999986,80.1912709 Z M77.8143271,60.5247972 L56.0597848,82.9422266 L48.8621853,75.4697501 C45.6910186,72.2140572 40.5495417,72.2140572 37.378375,75.4697502 C34.2072084,78.7254431 34.2072083,84.0039644 37.3783749,87.2596574 L50.3178796,100.54406 C51.8363839,102.115876 53.9034363,103 56.0597848,103 C58.2161333,103 60.2831858,102.115876 61.80169,100.54406 L89.6216251,72.231677 C92.7927917,68.9759839 92.7927916,63.6974627 89.621625,60.4417698 C86.4504583,57.1860768 81.3089814,57.1860767 78.1378147,60.4417697 L77.8143271,60.5247972 Z"></path>
                                    </g>
                                </g>
                            </g>
                        </g>
                        <path d="M96,78 L230.5,78 C232.709139,78 234.5,79.790861 234.5,82 L234.5,82 C234.5,84.209139 232.709139,86 230.5,86 L96,86 C93.790861,86 92,84.209139 92,82 L92,82 C92,79.790861 93.790861,78 96,78 Z" id="Rectangle-7" fill="#E1E8EE"></path>
                        <path d="M124.5,96 L201.589928,96 C203.799067,96 205.589928,97.790861 205.589928,100 L205.589928,100 C205.589928,102.209139 203.799067,104 201.589928,104 L124.5,104 C122.290861,104 120.5,102.209139 120.5,100 L120.5,100 C120.5,97.790861 122.290861,96 124.5,96 Z" id="Rectangle-7-Copy" fill="#E1E8EE"></path>
                        <path d="M84,125 L231,125 C233.209139,125 235,126.790861 235,129 L235,129 C235,131.209139 233.209139,133 231,133 L84,133 C81.790861,133 80,131.209139 80,129 L80,129 C80,126.790861 81.790861,125 84,125 Z" id="Rectangle-7-Copy-3" fill="#E1E8EE"></path>
                        <rect id="Rectangle-7-Copy-2" fill="#E1E8EE" x="80" y="143" width="155" height="8" rx="4"></rect>
                        <path d="M84,161 L212,161 C214.209139,161 216,162.790861 216,165 L216,165 C216,167.209139 214.209139,169 212,169 L84,169 C81.790861,169 80,167.209139 80,165 L80,165 C80,162.790861 81.790861,161 84,161 Z" id="Rectangle-7-Copy-5" fill="#E1E8EE"></path>
                        <g id="Group-8" transform="translate(143.000000, 16.000000)">
                            <rect id="Rectangle-8" fill="#3377C6" x="0" y="0" width="41" height="41" rx="6"></rect>
                            <g id="shield-check" transform="translate(13.000000, 10.000000)" fill="#FFFFFF" fill-rule="nonzero">
                                <path d="M15.63,1.65 C15.394693,1.45965217 15.0858385,1.38611538 14.79,1.45 C12.6302455,1.90262903 10.3794449,1.44306042 8.57,0.18 C8.2272054,-0.0578070772 7.7727946,-0.0578070772 7.43,0.18 C5.62055509,1.44306042 3.36975449,1.90262903 1.21,1.45 C0.914161495,1.38611538 0.605306971,1.45965217 0.37,1.65 C0.135008535,1.84063005 -0.00102886041,2.12741159 1.27675309e-15,2.43 L1.27675309e-15,9.88 C-0.00180382211,12.7890256 1.40256364,15.5195331 3.77,17.21 L7.42,19.81 C7.76716431,20.057178 8.23283569,20.057178 8.58,19.81 L12.23,17.21 C14.5974364,15.5195331 16.0018038,12.7890256 16,9.88 L16,2.43 C16.0010289,2.12741159 15.8649915,1.84063005 15.63,1.65 Z M14,9.88 C14.0015563,12.1417797 12.910179,14.2649369 11.07,15.58 L8,17.77 L4.93,15.58 C3.08982097,14.2649369 1.99844369,12.1417797 2,9.88 L2,3.58 C4.09642839,3.75943304 6.19604057,3.27302288 8,2.19 C9.80395943,3.27302288 11.9035716,3.75943304 14,3.58 L14,9.88 Z M9.54,7.59 L6.85,10.29 L5.96,9.39 C5.56787783,8.99787784 4.93212218,8.99787784 4.54000001,9.39000001 C4.14787784,9.78212218 4.14787784,10.4178778 4.54,10.81 L6.14,12.41 C6.3277666,12.5993127 6.58336246,12.7057983 6.85,12.7057983 C7.11663754,12.7057983 7.3722334,12.5993127 7.56,12.41 L11,9 C11.3921222,8.60787783 11.3921222,7.97212218 11,7.58000001 C10.6078778,7.18787784 9.97212217,7.18787784 9.58,7.58 L9.54,7.59 Z" id="Shape"></path>
                            </g>
                        </g>
                    </g>
                </g>
            </g>
        </g>
    </g>
</svg>
